X:488
T: Gongda kaihuaxian
N: C1907
O: China, Zhejiang Kaihua
S: III, 624]
R: Xiaodiao]
M: 2/4
L: 1/16
K: D
A2AFA2Bd | A4A4 |
B2Bde2ed | B4d4 |
A2A4B2 | e3ed2B2 | A3Bd2ed | B4d4 |
A2F2A2Bd | A4A4

